symbolic/24x24/apps/electron.svg

<svg xmlns="http://www.w3.org/2000/svg" width="24" height="24" version="1.1">
 <path style="opacity:0.2" d="m 12,2.5 a 10,10 0 0 0 -10,10 10,10 0 0 0 10,10 10,10 0 0 0 10,-10 10,10 0 0 0 -10,-10 z"/>
 <path style="fill:#494c60" d="M 12,2 A 10,10 0 0 0 2,12 10,10 0 0 0 12,22 10,10 0 0 0 22,12 10,10 0 0 0 12,2 Z"/>
 <path style="opacity:0.2" d="m 12.535156,4.4998365 a 1.5,1.5 0 0 0 -0.105468,0.00195 1.5,1.5 0 0 0 -1.228516,0.7480469 1.5,1.5 0 0 0 0.548828,2.0488281 1.5,1.5 0 0 0 1.220703,0.1230469 c 0.172375,0.1844117 0.341742,0.3796478 0.503906,0.5957031 C 12.166323,8.4402326 10.808913,9.0987341 9.625,9.9256177 8.7380712,10.545076 7.9987864,11.274718 7.4238281,12.050616 6.8294868,11.50159 6.3872801,10.943042 6.171875,10.439288 5.9544866,9.9308978 5.9392257,9.509216 6.1640625,9.0584303 6.4134382,8.5584452 6.7037313,8.3103391 7.0097656,8.1697584 7.3158,8.0291777 7.6574451,7.9995469 7.9941406,8.0349927 8.6675317,8.1058846 9.25,8.4334302 9.25,8.4334303 a 0.50050333,0.50050333 0 0 0 0.5,-0.8671876 c 0,0 -0.726165,-0.4278864 -1.6523438,-0.5253906 C 7.6345671,6.9921 7.1047364,7.02593 6.5917969,7.2615553 6.0788574,7.4971804 5.6045161,7.9395381 5.2695312,8.6111646 4.9100075,9.3319906 4.9498938,10.125462 5.2519531,10.831866 c 0.3020594,0.706406 0.8401326,1.357082 1.5078125,1.970703 0.035817,0.03292 0.080606,0.06299 0.1171875,0.0957 -0.3063509,0.539642 -0.5318825,1.089963 -0.6796875,1.632812 A 1.5,1.5 0 0 0 5,15.999835 a 1.5,1.5 0 0 0 1.5,1.5 1.5,1.5 0 0 0 1.5,-1.5 1.5,1.5 0 0 0 -0.7871094,-1.316406 c 0.114316,-0.367429 0.2670642,-0.745864 0.4707032,-1.126953 1.209513,0.916134 2.6557542,1.731598 4.0312502,2.375 0.928468,0.434299 1.865233,0.614266 2.763672,0.636718 -0.03815,0.118093 -0.06543,0.251687 -0.107422,0.363282 -0.259327,0.689184 -0.591648,1.243733 -0.949219,1.597656 -0.357571,0.353923 -0.711168,0.512591 -1.126953,0.496094 -0.955173,-0.0379 -1.48602,-0.538135 -1.839844,-1.072266 -0.353823,-0.534131 -0.4648436,-1.056641 -0.4648436,-1.056641 a 0.50104424,0.50104424 0 1 0 -0.9804688,0.207032 c 0,0 0.1437181,0.696441 0.6113282,1.402343 0.4676102,0.705903 1.3249892,1.467564 2.6347652,1.519532 0.716689,0.02844 1.368193,-0.287386 1.871094,-0.785157 0.502901,-0.49777 0.885061,-1.174036 1.179688,-1.957031 0.08928,-0.237278 0.153844,-0.501931 0.226562,-0.757812 0.684088,-0.08006 1.323966,-0.251065 1.90625,-0.46875 a 1.5,1.5 0 0 0 1.810547,0.242187 1.5,1.5 0 0 0 0.548828,-2.048828 1.5,1.5 0 0 0 -1.333984,-0.75 1.5,1.5 0 0 0 -0.714844,0.201172 1.5,1.5 0 0 0 -0.742188,1.441406 c -0.383647,0.135364 -0.794183,0.249828 -1.228515,0.324219 0.214142,-1.174771 0.288732,-2.449156 0.179687,-3.712891 -0.09896,-1.146932 -0.432128,-2.199539 -0.90039,-3.1191389 0.760367,-0.1466631 1.439607,-0.1694985 1.927734,-0.074219 0.488568,0.095366 0.746897,0.2739732 0.871094,0.5332031 0.338109,0.7057153 0.17803,1.2832428 -0.07813,1.7578108 -0.256151,0.47457 -0.595703,0.767579 -0.595703,0.767579 a 0.50010925,0.50010925 0 1 0 0.646484,0.761718 c 0,0 0.477777,-0.401978 0.830078,-1.054687 0.352302,-0.652709 0.592809,-1.6346362 0.09961,-2.6640614 C 18.468314,8.0536018 17.85671,7.7104943 17.177734,7.5779615 16.498759,7.4454287 15.713369,7.4887467 14.867188,7.6521803 14.757065,7.6734493 14.63938,7.7146764 14.527344,7.7400709 14.292741,7.3943166 14.03413,7.0864719 13.767578,6.7986646 A 1.5,1.5 0 0 0 13.798828,6.7498365 1.5,1.5 0 0 0 13.25,4.7010084 1.5,1.5 0 0 0 12.535156,4.4998365 Z m 1.50586,4.3984375 c 0.473524,0.8551731 0.827953,1.852933 0.921875,2.941405 0.110001,1.274819 0.02066,2.58242 -0.216797,3.730468 -0.84755,0.01231 -1.737247,-0.137889 -2.607422,-0.544921 C 10.780119,14.38975 9.3528933,13.570787 8.2128906,12.697101 8.7228593,11.990522 9.385977,11.313923 10.199219,10.745929 11.370837,9.927633 12.758885,9.2838618 14.041016,8.898274 Z M 12,11.499835 c -0.549108,0 -1,0.450892 -1,1 0,0.549108 0.450892,1 1,1 0.549108,0 1,-0.450892 1,-1 0,-0.549108 -0.450892,-1 -1,-1 z"/>
 <path style="fill:#cff7ff" d="M 12.429688 4.0019531 A 1.5 1.5 0 0 0 11.201172 4.75 A 1.5 1.5 0 0 0 11.75 6.7988281 A 1.5 1.5 0 0 0 13.798828 6.25 A 1.5 1.5 0 0 0 13.25 4.2011719 A 1.5 1.5 0 0 0 12.429688 4.0019531 z M 18.464844 13 A 1.5 1.5 0 0 0 17.75 13.201172 A 1.5 1.5 0 0 0 17.201172 15.25 A 1.5 1.5 0 0 0 19.25 15.798828 A 1.5 1.5 0 0 0 19.798828 13.75 A 1.5 1.5 0 0 0 18.464844 13 z M 6.5 14 A 1.5 1.5 0 0 0 5 15.5 A 1.5 1.5 0 0 0 6.5 17 A 1.5 1.5 0 0 0 8 15.5 A 1.5 1.5 0 0 0 6.5 14 z"/>
 <path style="opacity:0.1;fill:#ffffff" d="M 12,2 A 10,10 0 0 0 2.0705,10.926 10,9.5 0 0 1 12,2.5 10,9.5 0 0 1 21.961,11.2235 10,10 0 0 0 12,2 Z m 9.961,9.2235 A 10,10 0 0 1 22,12 10,9.5 0 0 0 21.961,11.2235 Z M 2.0705,10.926 A 10,9.5 0 0 0 2.0461,11.122 10,10 0 0 1 2.0705,10.926 Z M 2.0461,11.122 A 10,10 0 0 0 2.0002,12 10,9.5 0 0 1 2.0461,11.122 Z"/>
 <path style="fill:none;stroke:#cff7ff;stroke-width:1.00011849;stroke-linecap:round" d="m 17.507,11.5 c 0,0 1.632558,-1.386987 0.80125,-3.1221275 C 17.476943,6.642732 13.013972,7.668914 9.91216,9.835321 c -2.23302,1.559613 -3.450547,3.873224 -3.411306,5.6575"/>
 <path style="fill:none;stroke:#cff7ff;stroke-width:1.00011849;stroke-linecap:round" d="m 9.5,16.5 c 0,0 0.510392,2.435134 2.775342,2.525 2.264949,0.08987 3.510916,-3.959056 3.185658,-7.728507 C 15.226846,8.5828345 13.582006,6.37162 12.017157,5.513466"/>
 <path style="fill:none;stroke:#cff7ff;stroke-width:1.00011849;stroke-linecap:round" d="m 9.49975,7.5 c 0,0 -2.614779,-1.5084035 -3.7835,0.8348195 C 4.547529,10.678043 8.4998205,13.374956 11.92689,14.978 14.394065,16.132045 16.974393,15.426122 18.5,14.5"/>
 <path style="fill:#cff7ff" d="M 12 11 C 11.450892 11 11 11.450892 11 12 C 11 12.549108 11.450892 13 12 13 C 12.549108 13 13 12.549108 13 12 C 13 11.450892 12.549108 11 12 11 z"/>
 <path style="fill:#494c60" d="M 12.5 5 A 0.5 0.5 0 0 0 12 5.5 A 0.5 0.5 0 0 0 12.5 6 A 0.5 0.5 0 0 0 13 5.5 A 0.5 0.5 0 0 0 12.5 5 z M 18.5 14 A 0.5 0.5 0 0 0 18 14.5 A 0.5 0.5 0 0 0 18.5 15 A 0.5 0.5 0 0 0 19 14.5 A 0.5 0.5 0 0 0 18.5 14 z M 6.5 15 A 0.5 0.5 0 0 0 6 15.5 A 0.5 0.5 0 0 0 6.5 16 A 0.5 0.5 0 0 0 7 15.5 A 0.5 0.5 0 0 0 6.5 15 z"/>
</svg>

<svg xmlns="http://www.w3.org/2000/svg" width="24" height="24"><path style="opacity:.2" d="M12 2.5a10 10 0 0 0-10 10 10 10 0 0 0 10 10 10 10 0 0 0 10-10 10 10 0 0 0-10-10z"/><path style="fill:#494c60" d="M12 2A10 10 0 0 0 2 12a10 10 0 0 0 10 10 10 10 0 0 0 10-10A10 10 0 0 0 12 2z"/><path style="opacity:.2" d="M12.535 4.5a1.5 1.5 0 0 0-.105.002 1.5 1.5 0 0 0-1.229.748 1.5 1.5 0 0 0 .549 2.049 1.5 1.5 0 0 0 1.22.123c.173.184.342.38.505.595a14.824 14.824 0 0 0-3.85 1.909 9.532 9.532 0 0 0-2.201 2.125c-.595-.55-1.037-1.108-1.252-1.612-.218-.508-.233-.93-.008-1.38.25-.5.54-.749.846-.89.306-.14.647-.17.984-.134a3.68 3.68 0 0 1 1.256.398.5.5 0 0 0 .5-.867s-.726-.428-1.652-.525c-.463-.049-.993-.015-1.506.22-.513.236-.987.679-1.322 1.35-.36.721-.32 1.514-.018 2.22.302.707.84 1.358 1.508 1.972.036.032.08.063.117.095a7.088 7.088 0 0 0-.68 1.633A1.5 1.5 0 0 0 5 16a1.5 1.5 0 0 0 1.5 1.5A1.5 1.5 0 0 0 8 16a1.5 1.5 0 0 0-.787-1.317c.114-.367.267-.745.47-1.127 1.21.917 2.656 1.732 4.032 2.375a6.862 6.862 0 0 0 2.764.637c-.039.118-.066.252-.108.363-.26.69-.592 1.244-.95 1.598-.357.354-.71.513-1.126.496-.955-.038-1.486-.538-1.84-1.072-.354-.534-.465-1.057-.465-1.057a.501.501 0 1 0-.98.207s.143.697.611 1.403c.468.706 1.325 1.467 2.635 1.52.717.028 1.368-.288 1.871-.786.503-.498.885-1.174 1.18-1.957.089-.237.153-.502.226-.758a8.157 8.157 0 0 0 1.906-.469 1.5 1.5 0 0 0 1.811.243 1.5 1.5 0 0 0 .549-2.05 1.5 1.5 0 0 0-1.334-.75 1.5 1.5 0 0 0-.715.202 1.5 1.5 0 0 0-.742 1.441c-.384.136-.794.25-1.229.325.214-1.175.289-2.45.18-3.713a8.48 8.48 0 0 0-.9-3.12c.76-.146 1.44-.169 1.927-.074.489.096.747.274.871.534.339.705.178 1.283-.078 1.757-.256.475-.595.768-.595.768a.5.5 0 1 0 .646.762s.478-.402.83-1.055c.352-.653.593-1.635.1-2.664-.292-.608-.903-.952-1.582-1.084-.68-.133-1.465-.09-2.31.074-.11.021-.229.063-.34.088a7.973 7.973 0 0 0-.76-.941 1.5 1.5 0 0 0 .03-.05 1.5 1.5 0 0 0-.548-2.048 1.5 1.5 0 0 0-.715-.201zm1.506 4.398c.474.855.828 1.853.922 2.942a13.2 13.2 0 0 1-.217 3.73 5.899 5.899 0 0 1-2.607-.545c-1.359-.635-2.786-1.454-3.926-2.328a8.349 8.349 0 0 1 1.986-1.951 13.914 13.914 0 0 1 3.842-1.848zM12 11.5c-.55 0-1 .45-1 1 0 .549.45 1 1 1s1-.451 1-1c0-.55-.45-1-1-1z"/><path style="fill:#cff7ff" d="M12.43 4.002a1.5 1.5 0 0 0-1.229.748 1.5 1.5 0 0 0 .549 2.049 1.5 1.5 0 0 0 2.049-.549 1.5 1.5 0 0 0-.549-2.049 1.5 1.5 0 0 0-.82-.199zM18.465 13a1.5 1.5 0 0 0-.715.201 1.5 1.5 0 0 0-.549 2.049 1.5 1.5 0 0 0 2.049.549 1.5 1.5 0 0 0 .549-2.049 1.5 1.5 0 0 0-1.334-.75zM6.5 14A1.5 1.5 0 0 0 5 15.5 1.5 1.5 0 0 0 6.5 17 1.5 1.5 0 0 0 8 15.5 1.5 1.5 0 0 0 6.5 14z"/><path style="opacity:.1;fill:#fff" d="M12 2a10 10 0 0 0-9.93 8.926A10 9.5 0 0 1 12 2.5a10 9.5 0 0 1 9.961 8.723A10 10 0 0 0 12 2zm9.961 9.223A10 10 0 0 1 22 12a10 9.5 0 0 0-.039-.777zm-19.89-.297a10 9.5 0 0 0-.025.196 10 10 0 0 1 .025-.196zm-.025.196A10 10 0 0 0 2 12a10 9.5 0 0 1 .046-.878z"/><path style="fill:none;stroke:#cff7ff;stroke-width:1.00011849;stroke-linecap:round" d="M17.507 11.5s1.633-1.387.801-3.122c-.831-1.735-5.294-.71-8.396 1.457-2.233 1.56-3.45 3.874-3.411 5.658"/><path style="fill:none;stroke:#cff7ff;stroke-width:1.00011849;stroke-linecap:round" d="M9.5 16.5s.51 2.435 2.775 2.525c2.265.09 3.511-3.96 3.186-7.729-.234-2.713-1.879-4.924-3.444-5.783"/><path style="fill:none;stroke:#cff7ff;stroke-width:1.00011849;stroke-linecap:round" d="M9.5 7.5s-2.615-1.508-3.784.835c-1.168 2.343 2.784 5.04 6.21 6.643 2.468 1.154 5.048.448 6.574-.478"/><path style="fill:#cff7ff" d="M12 11c-.55 0-1 .45-1 1s.45 1 1 1 1-.45 1-1-.45-1-1-1z"/><path style="fill:#494c60" d="M12.5 5a.5.5 0 0 0-.5.5.5.5 0 0 0 .5.5.5.5 0 0 0 .5-.5.5.5 0 0 0-.5-.5zm6 9a.5.5 0 0 0-.5.5.5.5 0 0 0 .5.5.5.5 0 0 0 .5-.5.5.5 0 0 0-.5-.5zm-12 1a.5.5 0 0 0-.5.5.5.5 0 0 0 .5.5.5.5 0 0 0 .5-.5.5.5 0 0 0-.5-.5z"/></svg>
